public/logos/NO.svg

<?xml version="1.0" encoding="UTF-8"?>
<svg xmlns="http://www.w3.org/2000/svg" xmlns:xlink="http://www.w3.org/1999/xlink" width="176pt" height="55.46pt" viewBox="0 0 176 55.46" version="1.1">
<defs>
<clipPath id="clip1">
  <path d="M 58 0 L 176 0 L 176 55.460938 L 58 55.460938 Z M 58 0 "/>
</clipPath>
</defs>
<g id="surface1">
<g clip-path="url(#clip1)" clip-rule="nonzero">
<path style=" stroke:none;fill-rule:nonzero;fill:rgb(85.940552%,11.677551%,14.611816%);fill-opacity:1;" d="M 58.003906 6.332031 C 82.210938 0.289062 138.339844 -9.136719 152.171875 20.796875 C 155.621094 28.261719 161.328125 19.667969 176 29.007812 C 165.347656 32.273438 163.332031 41.320312 150.539062 48.570312 C 127.273438 61.753906 90.5625 51.425781 58.003906 54.320312 L 58.003906 53.824219 C 71.820312 52.433594 81.898438 52.527344 83.183594 49.082031 C 84.117188 46.597656 76.53125 45.304688 69.089844 45.140625 L 69.09375 44.882812 C 92.421875 45.066406 111.125 42.925781 124.625 36.289062 C 134.46875 31.449219 132.5625 25.8125 114.136719 18.347656 C 109.171875 10.886719 101.238281 5.964844 58.003906 7.011719 L 58.003906 6.332031 "/>
</g>
<path style=" stroke:none;fill-rule:nonzero;fill:rgb(85.940552%,11.677551%,14.611816%);fill-opacity:1;" d="M 39.484375 23.816406 C 39.378906 23.070312 38.945312 22.46875 38.183594 22.019531 C 37.421875 21.566406 36.511719 21.339844 35.449219 21.339844 C 33.113281 21.339844 31.738281 22.164062 31.332031 23.816406 Z M 46.492188 26.503906 L 31.136719 26.503906 C 31.191406 28.628906 32.703125 29.6875 35.671875 29.6875 C 37.824219 29.6875 39.292969 29.160156 40.085938 28.105469 L 45.4375 29.539062 C 44.105469 31.667969 40.996094 32.730469 36.101562 32.730469 C 32.515625 32.730469 29.660156 32.0625 27.542969 30.730469 C 25.503906 29.445312 24.484375 27.769531 24.484375 25.691406 C 24.484375 23.636719 25.53125 21.914062 27.628906 20.523438 C 29.726562 19.132812 32.417969 18.4375 35.714844 18.4375 C 39.007812 18.4375 41.628906 19.136719 43.574219 20.53125 C 45.519531 21.925781 46.492188 23.84375 46.492188 26.285156 L 46.492188 26.503906 "/>
<path style=" stroke:none;fill-rule:nonzero;fill:rgb(85.940552%,11.677551%,14.611816%);fill-opacity:1;" d="M 63.609375 25.597656 C 63.609375 24.613281 63.238281 23.832031 62.484375 23.261719 C 61.738281 22.6875 60.710938 22.402344 59.402344 22.402344 C 58.09375 22.402344 57.066406 22.6875 56.3125 23.261719 C 55.5625 23.832031 55.1875 24.613281 55.1875 25.597656 C 55.1875 26.582031 55.5625 27.359375 56.3125 27.921875 C 57.066406 28.488281 58.09375 28.769531 59.402344 28.769531 C 60.710938 28.769531 61.738281 28.488281 62.484375 27.921875 C 63.238281 27.359375 63.609375 26.582031 63.609375 25.597656 M 70.6875 25.585938 C 70.6875 27.570312 69.597656 29.257812 67.421875 30.648438 C 65.242188 32.035156 62.574219 32.730469 59.414062 32.730469 C 56.230469 32.730469 53.5625 32.035156 51.410156 30.648438 C 49.257812 29.257812 48.183594 27.570312 48.183594 25.585938 C 48.183594 23.601562 49.265625 21.914062 51.429688 20.523438 C 53.59375 19.132812 56.257812 18.4375 59.414062 18.4375 C 62.574219 18.4375 65.242188 19.132812 67.421875 20.523438 C 69.597656 21.914062 70.6875 23.601562 70.6875 25.585938 "/>
<path style=" stroke:none;fill-rule:nonzero;fill:rgb(85.940552%,11.677551%,14.611816%);fill-opacity:1;" d="M 71.671875 31.109375 L 73.144531 27.507812 C 75.265625 28.726562 77.660156 29.335938 80.332031 29.335938 C 82.152344 29.335938 83.066406 28.964844 83.066406 28.230469 C 83.066406 27.746094 82.683594 27.402344 81.917969 27.203125 C 80.851562 27.027344 79.800781 26.84375 78.765625 26.664062 C 74.695312 25.964844 72.664062 24.644531 72.664062 22.699219 C 72.664062 21.441406 73.382812 20.414062 74.828125 19.625 C 76.269531 18.832031 78.269531 18.4375 80.828125 18.4375 C 83.414062 18.4375 86.097656 18.84375 88.875 19.652344 L 87.40625 22.890625 C 85.503906 22.042969 83.574219 21.621094 81.617188 21.621094 C 79.988281 21.621094 79.171875 21.949219 79.171875 22.59375 C 79.171875 22.992188 79.59375 23.289062 80.441406 23.488281 C 81.554688 23.703125 82.671875 23.917969 83.789062 24.136719 C 85.75 24.53125 87.179688 25.027344 88.078125 25.621094 C 89.03125 26.269531 89.507812 27.117188 89.507812 28.164062 C 89.507812 29.511719 88.722656 30.617188 87.160156 31.460938 C 85.597656 32.308594 83.492188 32.730469 80.855469 32.730469 C 77.398438 32.730469 74.339844 32.191406 71.671875 31.109375 "/>
<path style=" stroke:none;fill-rule:nonzero;fill:rgb(85.940552%,11.677551%,14.611816%);fill-opacity:1;" d="M 15.503906 25.324219 C 15.449219 24.445312 15.027344 23.746094 14.335938 23.214844 C 13.585938 22.644531 12.558594 22.355469 11.25 22.355469 C 9.941406 22.355469 8.914062 22.644531 8.164062 23.214844 C 7.472656 23.742188 6.917969 24.523438 6.863281 25.402344 L 6.875 32.386719 L 0.00390625 32.386719 C 0.00390625 29.960938 0 27.523438 0 25.539062 C 0 23.554688 1.113281 21.867188 3.28125 20.480469 C 5.445312 19.085938 8.105469 18.394531 11.265625 18.394531 C 14.425781 18.394531 17.09375 19.085938 19.273438 20.480469 C 21.449219 21.867188 22.550781 23.554688 22.550781 25.539062 L 22.550781 32.386719 L 15.503906 32.386719 C 15.503906 32.386719 15.507812 25.398438 15.503906 25.324219 "/>
</g>
</svg>

<svg xmlns="http://www.w3.org/2000/svg" width="176pt" height="73.947" viewBox="0 0 176 55.46"><defs><clipPath id="a"><path d="M58 0h118v55.46H58Zm0 0"/></clipPath></defs><g clip-path="url(#a)"><path d="M58.004 6.332C82.21.289 138.34-9.137 152.172 20.797c3.45 7.465 9.156-1.129 23.828 8.21-10.652 3.266-12.668 12.313-25.46 19.563-23.267 13.184-59.977 2.856-92.536 5.75v-.496c13.816-1.39 23.894-1.297 25.18-4.742.933-2.484-6.653-3.777-14.094-3.941l.004-.258c23.328.183 42.031-1.957 55.531-8.594 9.844-4.84 7.938-10.477-10.488-17.941-4.965-7.461-12.899-12.383-56.133-11.336z" style="stroke:none;fill-rule:nonzero;fill:#db1e25;fill-opacity:1"/></g><path d="M39.484 23.816q-.158-1.12-1.3-1.796-1.142-.68-2.735-.68-3.505-.001-4.117 2.476Zm7.008 2.688H31.137c.054 2.125 1.566 3.183 4.535 3.183q3.226 0 4.414-1.582l5.352 1.434c-1.333 2.129-4.442 3.191-9.336 3.191-3.586 0-6.442-.667-8.559-2-2.04-1.285-3.059-2.96-3.059-5.039q-.001-3.081 3.145-5.168c2.098-1.39 4.789-2.085 8.086-2.085q4.94.001 7.86 2.093 2.917 2.093 2.917 5.754zM63.61 25.598c0-.985-.372-1.766-1.126-2.336q-1.119-.861-3.082-.86-1.96-.001-3.09.86-1.125.857-1.124 2.336t1.124 2.324q1.13.848 3.09.848 1.963 0 3.082-.848c.754-.563 1.125-1.34 1.125-2.324m7.078-.012q-.001 2.977-3.265 5.062-3.269 2.081-8.008 2.082-4.776 0-8.004-2.082-3.227-2.085-3.226-5.062 0-2.976 3.246-5.063 3.248-2.085 7.984-2.085 4.739 0 8.008 2.085 3.265 2.087 3.266 5.063M71.672 31.11l1.473-3.602q3.18 1.828 7.187 1.828 2.732-.002 2.734-1.106 0-.727-1.148-1.027c-1.066-.176-2.117-.36-3.152-.539q-6.103-1.049-6.102-3.965-.002-1.889 2.164-3.074 2.163-1.188 6-1.187 3.88.001 8.047 1.214l-1.469 3.239q-2.853-1.271-5.789-1.27c-1.629 0-2.445.328-2.445.973q-.001.596 1.27.894 1.67.321 3.347.649 2.94.592 4.29 1.484 1.429.973 1.429 2.543c0 1.348-.785 2.453-2.348 3.297-1.562.848-3.668 1.27-6.305 1.27-3.457 0-6.515-.54-9.183-1.622M15.504 25.324c-.055-.879-.477-1.578-1.168-2.11q-1.124-.857-3.086-.859c-1.309 0-2.336.29-3.086.86-.691.527-1.246 1.308-1.3 2.187l.011 6.985H.004C.004 29.96 0 27.523 0 25.539s1.113-3.672 3.281-5.059c2.164-1.394 4.824-2.085 7.985-2.085 3.16 0 5.828.69 8.007 2.085 2.176 1.387 3.278 3.075 3.278 5.06v6.847h-7.047s.004-6.989 0-7.063" style="stroke:none;fill-rule:nonzero;fill:#db1e25;fill-opacity:1"/></svg>
